X:357
%%etbk:tnset id:168,pos:1,rep:3x,ant:
%%etbk:wsite http://www.trad.katesplacedoolin.com/tunes/furtherthedeeper.html
%%etbk:pldat 2016-09-17T14:17,2016-09-16T15:12,2016-09-15T18:21,2016-09-13T16:12,2016-09-12T18:43,2015-08-16T14:21,2014-11-24T16:27,2014-05-17T20:37,2014-05-12T18:41,2014-05-11T12:58,2014-03-22T16:27,2014-02-15T16:10,2014-02-09T11:21,2013-10-20T15:04,2013-09-02T18:29,2013-05-18T13:41,2013-05-14T18:09,2013-05-07T18:54,2013-05-02T18:41
T: The Further The Deeper
Z: Piano Box Version by Martin Fleischmann
H: Created 2013-02-19 /  Last Modified 2013-02-19
M:6/8
L:1/8
R:jig
K:Ador
|: "am"!1!ABd !5!edB | !4!dBA !1!A2!2!B | "G"!1!G!1!A!2!B !3!d!5!g!3!d | !2!B!1!GG !1!G2!4!g|
"am"!3!fed !2!efg | !5!a!1!AA !2!e2!5!a | "em"!4!g2e !1!d!2!B!4!d| "am"!5!e!1!AA A2A:|
|: "am"!2!e!4!ge ege | !1!d!2!B!1!A A2B | "G"!3!ded !3!d!5!g!3!d | !2!B!1!GG !1!G2!4!g|
"am"!3!fed !2!efg | !5!a!1!AA !2!e2!5!a | "em"!4!g2e !1!d!2!B!4!d| "am"!5!e!1!AA A2A:||


